X:1
T:Title
%%score { 1 | ( 2 3 ) } ( 4 5 )
L:1/8
Q:1/4=102
M:6/8
K:G
V:1 treble nm="Grand Piano, Soprano"
V:2 treble 
V:3 treble 
V:4 bass nm="Choir Pad, The Easter Bells"
V:5 bass 
V:1
 D B2 B A2 | B A2- A G2 | F E2 EEF | G D2- D2- D/ z/ | B d2 d c2 | d c2- c B2 | B A2 E F2 | %7
w: By~Joseph~Lincoln~Hall * * *|||||||
 G A2- A3- | A D2 E F2 | GBB- B/ z/ bb- | bcc- c/ z/ c'c'- | c'dd- d/ z/ d'd'- | d' D2 E F2 | %13
w: ||||||
 GBB- B/ z/ bb- | b^cB A B2 | ^cdd' d'dd' | d' D2 E F2 | GBB- B/ z/ bb- | bcc- c/ z/ c'c'- | %19
w: ||||||
 c'dd- d/ z/ d'd'- | d' e2 e d2- | d c2 c B2- | BGF G B2 | A G2- G3- | G3 z3 |] %25
w: ||||||
V:2
 B, D2 D C2 | C C2- C B,2 | ^D C2 C C2 | C[K:bass] B,2- B,2- B,/ z/ | D D2[K:treble] D D2 | %5
 D D2- D D2 | D ^C2 C C2 | ^C =C2- C3- | C[K:bass] B,2 B, B,2 | %9
 B,B,B,- B,/ z/[K:treble] [dg][dg]- | [dg]2 F- F/ z/ [dfa][dfa]- | [dfa]GG- G/ z/ [dgb][dgb]- | %12
 [dgb][K:bass] B,2 B, B,2 | B,B,B,- B,/ z/[K:treble] [dg][dg]- | [dg] G2 G G2 | %15
 .G2 [Acd] .d2 [EGd] | [DFAcd][K:bass] B,2 B, B,2 | B,B,B,- B,/ z/[K:treble] [dg][dg]- | %18
 [dg]FF- F/ z/ [dfa][dfa]- | [dfa]GG- G/ z/ [dgb][dgb]- | [dgb] G2 G G2- | G [DF]2 [DF] [DG]2- | %22
 [DG] ^C2 C[K:bass] D2 | C B,2- B,3- | B,3 z3 |] %25
V:3
 x6 | x6 | x6 | x[K:bass] x5 | x3[K:treble] x3 | x6 | x6 | x6 | x[K:bass] x5 | x4[K:treble] x2 | %10
 x6 | x6 | x[K:bass] x5 | x4[K:treble] x2 | x6 | z F2- F F2 | x[K:bass] x5 | x4[K:treble] x2 | x6 | %19
 x6 | x6 | x6 | x4[K:bass] x2 | x6 | x6 |] %25
V:4
 [G,,G,] [G,,G,]2 [G,,G,] [D,F,]2 | [D,F,] [^D,F,]2- [D,F,] [E,G,]2 | z3 z G,2 | %3
 [E,G,] G,2- G,2- G,/ z/ | G, [G,B,]2 [G,B,] [F,A,]2 | [F,A,] [F,A,]2- [F,A,] G,2 | %6
 [G,,G,] [A,,E,]2 [A,,A,] [A,,A,]2 | [A,,G,] [D,F,]2- [D,F,]3- | [D,F,] [G,,D,]2 [G,,D,] [G,,D,]2 | %9
 [G,,D,][G,,D,][G,,D,]- [G,,D,]/ z/[K:treble] [DGB][DGB]- | %10
 [DGB][K:bass][D,A,][D,A,]- [D,A,]/ z/[K:treble] [DFAc][DFAc]- | %11
 [DFAc][G,B,][G,B,]- [G,B,]/ z/ [DGB][DGB]- | [DGB][K:bass] [G,,D,]2 [G,,D,] [G,,D,]2 | %13
 [G,,D,][G,,D,][G,,D,]- [G,,D,]/ z/[K:treble] [DGB][DGB]- | [DGB]ED[K:bass] [A,C] [A,D]2 | %15
 [A,E] [D,D]2- [D,D]3- | [D,D] [G,,D,]2 [G,,D,] [G,,D,]2 | %17
 [G,,D,] [G,,D,]2 [G,,D,][K:treble][DGB][DGB]- | %18
 [DGB][K:bass][D,A,][D,A,]- [D,A,]/ z/[K:treble] [DFAc][DFAc]- | %19
 [DFAc][G,B,][G,B,]- [G,B,]/ z/ [DGB][DGB]- | [DGB][K:bass] [C,C]2 [C,C] [B,,B,]2- | %21
 [B,,B,] [A,,A,]2 [A,,A,] [G,,G,]2- | [G,,G,] [^D,_B,]2 [D,B,] [=D,G,]2 | %23
 [D,F,] [G,,D,G,]2- [G,,D,G,]3- | [G,,D,G,]3 z3 |] %25
V:5
 x6 | x6 | [B,,A,] [C,G,]2 [C,G,]C,D, | x6 | x6 | x6 | x6 | x6 | x6 | x4[K:treble] x2 | %10
 x[K:bass] x3[K:treble] x2 | x6 | x[K:bass] x5 | x4[K:treble] x2 | z A,2[K:bass] z3 | x6 | x6 | %17
 x4[K:treble] x2 | x[K:bass] x3[K:treble] x2 | x6 | x[K:bass] x5 | x6 | x6 | x6 | x6 |] %25

